X: 41589
T: Up And Down Sir
R: reel
M: 4/4
K: Cmajor
|cB|:A3EG2cB|A2GE DCED|C3 D EDEG|cAGE D2 EG|
A2ce dcAB|cAGE AGED|G,A,CD EGAG|ECCB, C2 cB:|
|:B2 GA Bcde|f2 GA Bcdf|ec (3ccB c2|ec (3ccB cd ecdc|
B2 GA Bcde|f2 GA Bcdf|eceg afdB|Bc (3ccB cedc:|

